X:186
T:Sir David Davidson of Cantray
O:scotland
R:Reel
M:4/4
K:D
A|\
d2fd cdBc|AdFd EecA|d2fd cdAF|GEec d2dA|\
d2fd cdBd|AdFd EecA|
d2fd cdAF|GEec d2d::\
f|\
afdf afba|gfed cdef|
gfed cbag|fedc d2df|\
afdf afba|gfed cBAG|FAdc Bbge|cABc d3 :|
